X:1
T:Title
%%score ( 1 2 ) ( 3 4 )
L:1/8
Q:1/4=125
M:3/2
K:G
V:1 treble nm="Grand Piano, Soprano"
V:2 treble 
V:3 bass nm="Choir Pad, Malatya, J. D. Wickof, 1873"
V:4 bass 
V:1
 [GB]2 [DG]2 [CE]2 [B,D]6 | [DB]2 [DA]2 [^CG]2 [DA]6 | [FA]2 [FA]2 [FA]2 [FA]6 | %3
w: By~J.~D.~Wickoff,~1873 * * *|||
 [FA]2 [Fd]2 [Fc]2 [GB]6 | [GB]2 [GB]2 [GB]2 [Gc]6 | z4 z2 d6 | [DA]2 [DA]2 [DB]2 [Dc]6 | %7
w: ||||
 [CF]2 [CF]2 [CF]2 [B,G]6- | [B,G]4 z4 z4 |] %9
w: ||
V:2
 x12 | x12 | x12 | x12 | x12 | [G^c]2 [Gc]2 [Gc]2 G2 F4 | x12 | x12 | x12 |] %9
V:3
 [G,,G,]2 [B,,G,]2 [C,G,]2 [G,,G,]6 | G,2 [F,A,]2 [E,A,]2 [D,F,]6 | D,2 [D,F,]2 [D,A,]2 [D,C]6 | %3
 [D,C]2 [D,B,]2 [D,A,]2 [G,,G,]6 | [G,D]2 [G,D]2 [=F,D]2 [E,C]6 | %5
 [^D,_B,]2 [D,B,]2 [D,B,]2 =B,2 A,4 | [D,F,]2 [D,F,]2 [D,G,]2 [D,A,]6 | %7
 [D,A,]2 [D,A,]2 [D,A,]2 [G,,G,]6- | [G,,G,]4 z4 z4 |] %9
V:4
 x12 | x12 | x12 | x12 | x12 | z4 z2 =D,6 | x12 | x12 | x12 |] %9

